!!!!SEGMENT: Ric2027-Sancta_Maria_succurre_miseris--London_19583
!!!id: Ric2027
!!!SMS: London 19583
!!!AGN: Motet
!!!voices: 1
!!!COM: Jean Richafort
!!!OTL: Sancta Maria, succurre miseris (London 19583)
**kern
*I"Altus
*I'A.
*clefGv2
*k[]
*M2/1
*met(C|)
=1
!!section: Prima pars: Sancta Maria, succere miseris
!!!OMD: Prima pars: Sancta Maria, succere miseris
1r
[1d
=2
1d]
1B
=3
1c
[1d
=4
1d]
1G
=5
2r
2d
1e
=6
2d
1g
2f
=7
2e
2d
2.f
4e
=8
4c
4d
2e
2d
2c
=9
2d
2B
1A
=10
[0G
=11
0G]
=12
0r
=13
0r
=14
0r
=15
0r
=16
0r
=17
0r
=18
0r
=19
0r
=20
2r
2d
2.g
4e
=21
2f
2g
2.e
4c
=22
2d
2e
1c
=23
2r
2c
2.f
4d
=24
2e
2f
1d
=25
1r
1G
=26
2.d
4c
4B
4A
[2G
=27
2G]
1g
2f
=28
0g
=29
1r
2r
[2g
=30
2g]
2g
2g
2e
=31
2f
2g
2.c
4d
=32
4e
4f
2.g
4f
4d
4e
=33
4f
4g
2.a
4d
[2g
=34
2g]
2f#X
[1g
=35
1g]
1r
=36
0r
=37
0r
=38
0r
=39
0r
=40
0r
=41
1d
2f
2f
=42
2e
2e
1d
=43
2c
2d
1e
=44
0r
=45
1d
1e
=46
2d
2c
2d
2d
=47
1d
1r
=48
0g
=49
1g
1g
=50
1e
1f
=51
*M3/1
*met(3)
1g
2r
=52
2d
2d
2e
=53
1f
2d
=54
2c
1d
=55
*M2/1
*met(C|)
1d
1r
=56
1c
1e
=57
1.g
4f
4e
=58
1d
2r
2d
=59
2d
2c
2d
2e
=60
2.f
4d
2.c
4d
=61
4e
4f
4g
4e
4f
4e
4d
4c
=62
1d
1c
=63
0r
=64
0r
=65
0r
=66
0r
=67
0r
=68
0r
=69
0r
=70
1r
1e
=71
1c
1d
=72
1.e
2d
=73
2.f
4e
4c
4d
2e
=74
2d
2B
2d
4c
4d
=75
2e
2c
[1d
=76
1d]
1r
=77
2r
2c
2d
2e
=78
2f
2d
2e
2f
=79
1g
1r
=80
0r
=81
2r
2d
2e
2c
=82
2.d
4e
1f
=83
1e
2r
2d
=84
2e
2c
2d
2f
=85
1e
1d
=86
0r
=87
2r
2c
2d
2e
=88
2f
2d
2e
2f
=89
1g
1r
=90
0r
=91
1d
2e
2c
=92
2.d
4e
1f
=93
1e
2r
2d
=94
2e
2c
2d
2f
=95
1e
1d
=96
1B
1c
=97
0d;
=98
0dl
==
*-
!!!RDF**kern: i = editorial accidental
!!!RDF**kern: l = terminal long
!!!ENC: Max Blistain
!!!END: 2026/2/9
!!!EED: Benjamin Ory
!!!EEV: 2026/02/10
!!!YEC: Copyright 2026 Benjamin Ory, All Rights Reserved
!!!ONB: Translated from MusicXML on 2026/02/10
